src/assets/icons/application.svg

<svg width="32" height="32" viewBox="0 0 32 32" fill="none" xmlns="http://www.w3.org/2000/svg">
<g clip-path="url(#clip0_2409_4827)">
<path d="M14.6665 24.6666H1.99984C1.64622 24.6666 1.30708 24.5261 1.05703 24.2761C0.80698 24.0261 0.666504 23.6869 0.666504 23.3333V1.99996C0.666504 1.64634 0.80698 1.3072 1.05703 1.05715C1.30708 0.807102 1.64622 0.666626 1.99984 0.666626H21.9998C22.3535 0.666626 22.6926 0.807102 22.9426 1.05715C23.1927 1.3072 23.3332 1.64634 23.3332 1.99996V15.3333M20.9332 29.7333L15.3332 31.3333L16.9332 25.7333M20.9332 29.7333L30.5052 20.1613C30.7678 19.8986 30.9762 19.5868 31.1183 19.2437C31.2604 18.9005 31.3336 18.5327 31.3336 18.1613C31.3336 17.7899 31.2604 17.4221 31.1183 17.0789C30.9762 16.7357 30.7678 16.4239 30.5052 16.1613C30.2425 15.8986 29.9307 15.6903 29.5876 15.5482C29.2444 15.406 28.8766 15.3329 28.5052 15.3329C28.1337 15.3329 27.7659 15.406 27.4228 15.5482C27.0796 15.6903 26.7678 15.8986 26.5052 16.1613L16.9332 25.7333M20.9332 29.7333L16.9332 25.7333M25.3052 17.3613L29.3052 21.3613M7.99984 5.99996H17.3332M5.33317 9.99996H17.3332M5.33317 14H17.3332M5.33317 18H13.9998" stroke="#353434" stroke-width="1.5" stroke-linecap="round" stroke-linejoin="round"/>
</g>
<defs>
<clipPath id="clip0_2409_4827">
<rect width="32" height="32" fill="white"/>
</clipPath>
</defs>
</svg>

<svg xmlns="http://www.w3.org/2000/svg" width="32" height="32" fill="none"><g clip-path="url(#a)"><path stroke="#353434" stroke-linecap="round" stroke-linejoin="round" stroke-width="1.5" d="M14.6667 24.6667H2.0001a1.333 1.333 0 0 1-1.3334-1.3334V2A1.3333 1.3333 0 0 1 2.0001.6667h20A1.3334 1.3334 0 0 1 23.3334 2v13.3333m-2.4 14.4-5.6 1.6 1.6-5.6m4 4 9.572-9.572a2.8269 2.8269 0 0 0 .6131-3.0824 2.828 2.828 0 0 0-2.6131-1.746 2.83 2.83 0 0 0-2 .8284l-9.572 9.572m4 4-4-4m8.372-8.372 4 4M8.0001 6h9.3333m-12 4h12m-12 4h12m-12 4h8.6667"/></g><defs><clipPath id="a"><path fill="#fff" d="M0 0h32v32H0z"/></clipPath></defs></svg>
